assets/luts/alexa_logc_to_rec709.cube
LUT_3D_SIZE 33
0 0 0
0.0177005 0 0.000106813
0.0373999 0 0.00030518
0.0598001 0 0.000396735
0.0820935 0 0.000595102
0.105806 0 0.000900282
0.133593 0 0.00120546
0.166003 0 0.00180056
0.2038 0 0.00259403
0.249897 0 0.0037995
0.307301 0 0.00570687
0.372595 0 0.00860609
0.441794 0 0.012604
0.511604 0 0.0175021
0.581094 0 0.0234989
0.650095 0 0.0305943
0.718395 0 0.0388037
0.785595 0 0.0482032
0.851408 0 0.0585946
0.915496 0 0.0690929
0.975799 0 0.078996
1 0 0.0872053
1 0 0.0937057
1 0 0.0988022
1 0 0.102602
1 0 0.105394
1 0 0.107195
1 0 0.108507
1 0 0.109194
1 0 0.109606
1 0 0.109895
1 0 0.110307
1 0 0.111101
0 0.0153048 0
0.0128939 0.0148928 0
0.0325933 0.0144045 0
0.0551003 0.013901 0
0.0784009 0.0133059 0
0.1028 0.012604 0
0.131197 0.0113985 0
0.164096 0.00970474 0.00030518
0.202304 0.00729381 0.00109865
0.248707 0.00349432 0.00230411
0.306401 0 0.00430304
0.371893 0 0.00720226
0.441306 0 0.0110933
0.511101 0 0.0160067
0.580697 0 0.0220035
0.649805 0 0.029099
0.718105 0 0.0373999
0.785306 0 0.0466926
0.851194 0 0.0570993
0.915297 0 0.0677958
0.975708 0 0.0778058
1 0 0.0861067
1 0 0.0926986
1 0 0.0977951
1 0 0.101701
1 0 0.104494
1 0 0.106401
1 0 0.107607
1 0 0.108293
1 0 0.108705
1 0 0.109102
1 0 0.109499
1 0 0.110201
0 0.0323033 0
0.00759899 0.0319066 0
0.0272984 0.0314946 0
0.0498054 0.0310063 0
0.0740063 0.030396 0
0.0993973 0.0296025 0
0.128496 0.028397 0
0.162005 0.0267948 0
0.200595 0.0243076 0
0.247395 0.0204929 0.000701915
0.305394 0.0142977 0.00270085
0.371099 0.00529488 0.00560006
0.440696 0 0.00950637
0.510597 0 0.0144045
0.580301 0 0.0204013
0.649393 0 0.0274968
0.7178 0 0.0357061
0.785107 0 0.0451057
0.850904 0 0.0554971
0.915099 0 0.0664073
0.975494 0 0.0764935
1 0 0.0849012
1 0 0.0915999
1 0 0.0968032
1 0 0.100603
1 0 0.103395
1 0 0.105394
1 0 0.1066
1 0 0.107301
1 0 0.107698
1 0 0.108095
1 0 0.108507
1 0 0.109194
0 0.0516976 0
0.00149538 0.0513008 0
0.0211948 0.0509041 0
0.0437018 0.0504005 0
0.0688945 0.0498054 0
0.0953994 0.0489967 0
0.125307 0.0478065 0
0.159503 0.0462043 0
0.198703 0.0437018 0
0.245899 0.0399023 0
0.304295 0.0337987 0.000793469
0.370199 0.0247044 0.00369268
0.439994 0.0124056 0.00759899
0.510094 0 0.012604
0.579797 0 0.0186007
0.648997 0 0.0256962
0.717494 0 0.0339055
0.784802 0 0.0433051
0.850706 0 0.0536965
0.9149 0 0.0646982
0.975296 0 0.0749981
1 0 0.0834974
1 0 0.0903029
1 0 0.0955062
1 0 0.0993973
1 0 0.102296
1 0 0.104204
1 0 0.105394
1 0 0.106203
1 0 0.1066
1 0 0.106996
1 0 0.107393
1 0 0.108095
0 0.072694 0
0 0.0724041 0
0.0142061 0.0720073 0
0.0366064 0.0715953 0
0.062501 0.071107 0
0.0905013 0.0704051 0
0.121599 0.069398 0
0.156603 0.0679026 0
0.196399 0.0657054 0
0.244099 0.0621958 0
0.302907 0.0563058 0
0.369207 0.047303 0.0016022
0.4392 0.0350042 0.00549325
0.509407 0.019501 0.0104067
0.579293 0.000793469 0.0164034
0.6486 0 0.0234989
0.717098 0 0.0317998
0.784405 0 0.0410925
0.850401 0 0.0514992
0.914595 0 0.0626993
0.975006 0 0.0733043
1 0 0.0818952
1 0 0.0887007
1 0 0.0941024
1 0 0.0979934
1 0 0.100893
1 0 0.102907
1 0 0.104097
1 0 0.104906
1 0 0.105303
1 0 0.105592
1 0 0.106096
1 0 0.106798
0 0.095201 0
0 0.0948959 0
0.00480659 0.0946059 0
0.0272984 0.0943008 0
0.0534066 0.093904 0
0.0836957 0.0932937 0
0.116396 0.0925002 0
0.152605 0.0914015 0
0.193301 0.089601 0
0.241703 0.0869001 0
0.301106 0.0823072 0
0.367803 0.0751965 0
0.438102 0.0646067 0.00259403
0.508598 0.0495003 0.00759899
0.5785 0.0307012 0.0135958
0.648005 0.00849927 0.0207065
0.716503 0 0.0289006
0.783993 0 0.0383001
0.850004 0 0.0487068
0.914199 0 0.0599985
0.974701 0 0.0708934
1 0 0.0796979
1 0 0.0867018
1 0 0.0921035
1 0 0.0961013
1 0 0.0991073
1 0 0.100999
1 0 0.102296
1 0 0.103105
1 0 0.103502
1 0 0.103899
1 0 0.104295
1 0 0.105104
0 0.121508 0
0 0.121294 0
0 0.121096 0
0.0135958 0.120806 0
0.039704 0.1205 0
0.0728008 0.119997 0
0.1084 0.119402 0
0.146593 0.118502 0
0.188693 0.117098 0
0.238193 0.1149 0
0.298497 0.111406 0
0.365805 0.105898 0
0.4365 0.0981003 0
0.507301 0.0874037 0.00340276
0.577493 0.0728008 0.00939956
0.647105 0.0522011 0.016495
0.715801 0.0263981 0.0247959
0.783307 0 0.0341039
0.849393 0 0.0444953
0.913695 0 0.0560006
0.974197 0 0.0672007
1 0 0.0764019
1 0 0.0836042
1 0 0.0892042
1 0 0.0932937
1 0 0.0962997
1 0 0.0982986
1 0 0.0995956
1 0 0.100404
1 0 0.100893
1 0 0.101198
1 0 0.101701
1 0 0.102403
0 0.1523 0
0 0.152102 0
0 0.151904 0
0 0.151705 0
0.0198062 0.1514 0
0.0545052 0.151095 0
0.0957046 0.150607 0
0.137301 0.149905 0
0.181704 0.148806 0
0.233005 0.147097 0
0.294606 0.144305 0
0.362799 0.140093 0
0.434195 0.134203 0
0.505394 0.126406 0
0.575906 0.116197 0.00329595
0.645808 0.102907 0.0104067
0.714595 0.0852979 0.0187076
0.7823 0.0608988 0.0280003
0.848493 0.0283055 0.0384985
0.912902 0 0.049897
0.973495 0 0.0617075
1 0 0.071397
1 0 0.0789044
1 0 0.0847028
1 0 0.0890974
1 0 0.092195
1 0 0.0943008
1 0 0.0955978
1 0 0.0964065
1 0 0.0968948
1 0 0.0973068
1 0 0.0977035
1 0 0.098497
0 0.188098 0
0 0.1879 0
0 0.187793 0
0 0.187594 0
0 0.187396 0
0.0251926 0.187106 0
0.0740063 0.186694 0
0.122499 0.186099 0
0.170993 0.185306 0
0.224994 0.183993 0
0.288701 0.181796 0
0.358404 0.1785 0
0.430701 0.173999 0
0.502602 0.168093 0
0.573693 0.160601 0
0.643793 0.151293 0.0016022
0.712993 0.139605 0.00979629
0.780896 0.125002 0.0191043
0.847196 0.106493 0.0296025
0.911803 0.0820935 0.041001
0.972503 0.0484932 0.0529946
1 0.0146944 0.0634928
1 0 0.0717021
1 0 0.0778973
1 0 0.0825055
1 0 0.0858015
1 0 0.0879988
1 0 0.0894942
1 0 0.0903029
1 0 0.0908064
1 0 0.0912032
1 0 0.0917067
1 0 0.0925002
0 0.231693 0
0 0.231601 0
0 0.231495 0
0 0.231403 0
0 0.231205 0
0 0.231006 0
0.0305028 0.230701 0
0.0952926 0.230198 0
0.152605 0.229603 0
0.211994 0.228504 0
0.279301 0.226902 0
0.3514 0.224399 0
0.425299 0.220905 0
0.498299 0.216495 0
0.570108 0.210895 0
0.640803 0.204105 0
0.710399 0.195895 0
0.778607 0.186007 0.00540169
0.845304 0.174304 0.0157931
0.910002 0.160296 0.0272068
0.970901 0.144106 0.0392004
1 0.127703 0.0500038
1 0.111803 0.059205
1 0.0970016 0.0663005
1 0.0838941 0.071397
1 0.0729076 0.0751049
1 0.0646067 0.0776074
1 0.0587015 0.0791943
1 0.0549935 0.0800946
1 0.0527962 0.0805982
1 0.0511025 0.0811017
1 0.0487984 0.0816052
1 0.0451057 0.0825055
0 0.286198 0
0 0.286107 0
0 0.286 0
0 0.285893 0
0 0.285801 0
0 0.285603 0
0 0.285405 0
0.0314031 0.2851 0
0.116899 0.284504 0
0.1888 0.283803 0
0.263203 0.282506 0
0.339696 0.280598 0
0.416403 0.278004 0
0.491203 0.274601 0
0.564294 0.270497 0
0.635996 0.265599 0
0.706294 0.259602 0
0.775006 0.252705 0
0.8421 0.244694 0
0.907195 0.235492 0.00500496
0.968307 0.225406 0.0169985
1 0.215793 0.0278019
1 0.207095 0.0370947
1 0.199695 0.0446021
1 0.193606 0.0505989
1 0.188998 0.0549935
1 0.185702 0.0579995
1 0.183505 0.0599069
1 0.182193 0.0610971
1 0.181399 0.061799
1 0.180804 0.0623026
1 0.179995 0.0628977
1 0.178607 0.0639963
0 0.347997 0
0 0.347997 0
0 0.347906 0
0 0.347799 0
0 0.347707 0
0 0.347601 0
0 0.347402 0
0 0.347204 0
0.0319982 0.346807 0
0.147005 0.346105 0
0.237003 0.345205 0
0.321294 0.343694 0
0.402701 0.341695 0
0.480507 0.339193 0
0.555505 0.336095 0
0.628702 0.332296 0
0.699992 0.327901 0
0.769604 0.322896 0
0.837293 0.317098 0
0.902998 0.310506 0
0.964508 0.303502 0
1 0.296895 0
1 0.291203 0.00430304
1 0.286397 0.011902
1 0.282506 0.0178988
1 0.279606 0.0222934
1 0.277607 0.0252995
1 0.276204 0.0272984
1 0.275395 0.0285039
1 0.274907 0.0292058
1 0.274601 0.0298009
1 0.274098 0.0305028
1 0.273304 0.031693
0 0.413703 0
0 0.413596 0
0 0.413596 0
0 0.413504 0
0 0.413397 0
0 0.413306 0
0 0.413199 0
0 0.413001 0
0 0.412695 0
0.0536049 0.412207 0
0.194293 0.411399 0
0.293996 0.4103 0
0.383001 0.408698 0
0.465293 0.406699 0
0.543297 0.404303 0
0.618601 0.401404 0
0.691493 0.398001 0
0.762203 0.394095 0
0.830793 0.3897 0
0.8972 0.384802 0
0.959304 0.379507 0
1 0.374701 0
1 0.370504 0
1 0.366995 0
1 0.364294 0
1 0.362203 0
1 0.3608 0
1 0.359792 0
1 0.359304 0
1 0.358907 0
1 0.358694 0
1 0.358297 0
1 0.357702 0
0 0.479805 0
0 0.479698 0
0 0.479698 0
0 0.479606 0
0 0.479606 0
0 0.4795 0
0 0.479393 0
0 0.479194 0
0 0.478996 0
0 0.478599 0
0.117098 0.477897 0
0.254002 0.476997 0
0.3561 0.475807 0
0.445197 0.474205 0
0.527398 0.472206 0
0.605493 0.469902 0
0.6804 0.467201 0
0.752697 0.464103 0
0.822599 0.460594 0
0.889799 0.456703 0
0.952697 0.452598 0
1 0.448798 0
1 0.445594 0
1 0.442893 0
1 0.440803 0
1 0.4392 0
1 0.438102 0
1 0.4374 0
1 0.436896 0
1 0.436698 0
1 0.4365 0
1 0.436194 0
1 0.435798 0
0 0.545602 0
0 0.545602 0
0 0.545495 0
0 0.545495 0
0 0.545403 0
0 0.545403 0
0 0.545296 0
0 0.545098 0
0 0.5449 0
0 0.544594 0
0 0.544106 0
0.191302 0.543297 0
0.319097 0.542306 0
0.418799 0.540993 0
0.506996 0.539406 0
0.588998 0.537408 0
0.666697 0.535195 0
0.740993 0.532692 0
0.812299 0.529793 0
0.880796 0.526604 0
0.944595 0.523293 0
0.996902 0.520302 0
1 0.517601 0
1 0.515496 0
1 0.513802 0
1 0.512505 0
1 0.511604 0
1 0.510994 0
1 0.510704 0
1 0.510506 0
1 0.510307 0
1 0.510094 0
1 0.509804 0
0 0.611002 0
0 0.611002 0
0 0.611002 0
0 0.610895 0
0 0.610895 0
0 0.610803 0
0 0.610803 0
0 0.610605 0
0 0.610498 0
0 0.610193 0
0 0.609796 0
0.0505074 0.609094 0
0.266407 0.608194 0
0.384298 0.607095 0
0.4813 0.605798 0
0.568505 0.604105 0
0.649805 0.602304 0
0.726696 0.600107 0
0.799893 0.597696 0
0.869902 0.595102 0
0.934798 0.592294 0
0.9879 0.589807 0
1 0.587594 0
1 0.585794 0
1 0.584405 0
1 0.583307 0
1 0.582605 0
1 0.582101 0
1 0.581796 0
1 0.581598 0
1 0.581506 0
1 0.581292 0
1 0.581094 0
0 0.6757 0
0 0.6757 0
0 0.6757 0
0 0.6757 0
0 0.675593 0
0 0.675593 0
0 0.675502 0
0 0.675395 0
0 0.675196 0
0 0.674998 0
0 0.674601 0
0 0.674098 0
0.180896 0.673304 0
0.338003 0.672404 0
0.448707 0.671199 0
0.543404 0.669795 0
0.629404 0.668193 0
0.709499 0.666407 0
0.785199 0.664302 0
0.856992 0.662104 0
0.923293 0.659693 0
0.977401 0.657496 0
1 0.655695 0
1 0.6542 0
1 0.652995 0
1 0.652094 0
1 0.651499 0
1 0.651102 0
1 0.650797 0
1 0.650706 0
1 0.650599 0
1 0.650401 0
1 0.650202 0
0 0.739406 0
0 0.739406 0
0 0.739406 0
0 0.739406 0
0 0.7393 0
0 0.7393 0
0 0.739193 0
0 0.739101 0
0 0.738994 0
0 0.738796 0
0 0.738506 0
0 0.738003 0
0 0.737301 0
0.272099 0.736507 0
0.407095 0.7355 0
0.512596 0.734295 0
0.604898 0.732906 0
0.689204 0.731304 0
0.767895 0.729503 0
0.841901 0.727504 0
0.909895 0.725505 0
0.965103 0.723598 0
1 0.721996 0
1 0.720699 0
1 0.719707 0
1 0.718898 0
1 0.718395 0
1 0.717998 0
1 0.7178 0
1 0.717693 0
1 0.717601 0
1 0.717494 0
1 0.717205 0
0 0.801801 0
0 0.801801 0
0 0.801801 0
0 0.801694 0
0 0.801694 0
0 0.801694 0
0 0.801602 0
0 0.801495 0
0 0.801404 0
0 0.801205 0
0 0.8009 0
0 0.800504 0
0 0.799893 0
0.159594 0.799207 0
0.352407 0.798306 0
0.474693 0.797299 0
0.575692 0.796002 0
0.665507 0.794598 0
0.747906 0.793103 0
0.824598 0.791302 0
0.894606 0.789502 0
0.951202 0.7879 0
0.995804 0.786496 0
1 0.785306 0
1 0.784405 0
1 0.783703 0
1 0.783307 0
1 0.783001 0
1 0.782803 0
1 0.782696 0
1 0.782605 0
1 0.782498 0
1 0.7823 0
0 0.862593 0
0 0.862501 0
0 0.862501 0
0 0.862501 0
0 0.862501 0
0 0.862394 0
0 0.862394 0
0 0.862303 0
0 0.862196 0
0 0.862104 0
0 0.861799 0
0 0.861402 0
0 0.860899 0
0 0.860197 0
0.274693 0.859403 0
0.427497 0.858503 0
0.540993 0.857404 0
0.637903 0.856199 0
0.724895 0.854795 0
0.805005 0.853193 0
0.877394 0.851606 0
0.935607 0.850095 0
0.981292 0.848905 0
1 0.847898 0
1 0.847105 0
1 0.846494 0
1 0.846006 0
1 0.845808 0
1 0.845594 0
1 0.845502 0
1 0.845396 0
1 0.845304 0
1 0.845197 0
0 0.919707 0
0 0.919707 0
0 0.919707 0
0 0.919707 0
0 0.919707 0
0 0.9196 0
0 0.9196 0
0 0.919493 0
0 0.919402 0
0 0.919295 0
0 0.919005 0
0 0.9187 0
0 0.918196 0
0 0.917601 0
0.139605 0.916899 0
0.368597 0.916106 0
0.500801 0.915099 0
0.607004 0.913893 0
0.699702 0.912703 0
0.783597 0.911299 0
0.858701 0.909804 0
0.918807 0.908507 0
0.965698 0.907393 0
1 0.906493 0
1 0.905699 0
1 0.905196 0
1 0.904799 0
1 0.904601 0
1 0.904402 0
1 0.904295 0
1 0.904295 0
1 0.904204 0
1 0.904005 0
0 0.966995 0
0 0.966995 0
0 0.966995 0
0 0.966995 0
0 0.966903 0
0 0.966903 0
0 0.966903 0
0 0.966796 0
0 0.966705 0
0 0.966598 0
0 0.9664 0
0 0.966094 0
0 0.965606 0
0 0.965103 0
0 0.964401 0
0.301396 0.963607 0
0.459998 0.962707 0
0.576898 0.9617 0
0.675593 0.960494 0
0.7635 0.959197 0
0.841306 0.9579 0
0.903197 0.956695 0
0.951293 0.955596 0
0.988006 0.954803 0
1 0.954101 0
1 0.953597 0
1 0.953201 0
1 0.953002 0
1 0.952895 0
1 0.952804 0
1 0.952697 0
1 0.952697 0
1 0.952499 0
0 1 0
0 1 0
0 1 0
0 1 0
0 1 0
0 1 0
0 1 0
0 1 0
0 1 0
0 1 0
0 1 0
0 1 0
0 1 0
0 1 0
0 1 0
0.222202 1 0
0.420493 1 0
0.549096 0.999695 0
0.654002 0.998596 0
0.745602 0.997406 0
0.826001 0.996201 0
0.889403 0.994995 0
0.938704 0.994095 0
0.976196 0.993194 0
1 0.992599 0
1 0.992096 0
1 0.991806 0
1 0.991608 0
1 0.991501 0
1 0.991394 0
1 0.991394 0
1 0.991302 0
1 0.991104 0
0 1 0
0 1 0
0 1 0
0 1 0
0 1 0
0 1 0
0 1 0
0 1 0
0 1 0
0 1 0
0 1 0
0 1 0
0 1 0
0 1 0
0 1 0
0.113207 1 0
0.383703 1 0
0.524804 1 0
0.635401 1 0
0.730495 1 0
0.813107 1 0
0.878004 1 0
0.9281 1 0
0.966293 1 0
0.994507 1 0
1 1 0
1 1 0
1 1 0
1 1 0
1 1 0
1 1 0
1 1 0
1 1 0
0 1 0
0 1 0
0 1 0
0 1 0
0 1 0
0 1 0
0 1 0
0 1 0
0 1 0
0 1 0
0 1 0
0 1 0
0 1 0
0 1 0
0 1 0
0 1 0
0.351003 1 0
0.504494 1 0
0.620203 1 0
0.718303 1 0
0.802792 1 0
0.868803 1 0
0.919707 1 0
0.958404 1 0
0.986999 1 0
1 1 0
1 1 0
1 1 0
1 1 0
1 1 0
1 1 0
1 1 0
1 1 0
0 1 0
0 1 0
0 1 0
0 1 0
0 1 0
0 1 0
0 1 0
0 1 0
0 1 0
0 1 0
0 1 0
0 1 0
0 1 0
0 1 0
0 1 0
0 1 0
0.323903 1 0
0.488594 1 0
0.608698 1 0
0.708995 1 0
0.794995 1 0
0.861906 1 0
0.913405 1 0
0.952499 1 0
0.981399 1 0
1 1 0
1 1 0
1 1 0
1 1 0
1 1 0
1 1 0
1 1 0
1 1 0
0 1 0
0 1 0
0 1 0
0 1 0
0 1 0
0 1 0
0 1 0
0 1 0
0 1 0
0 1 0
0 1 0
0 1 0
0 1 0
0 1 0
0 1 0
0 1 0
0.302998 1 0
0.477104 1 0
0.600397 1 0
0.702403 1 0
0.789502 1 0
0.857099 1 0
0.908995 1 0
0.948302 1 0
0.977401 1 0
0.998093 1 0
1 1 0
1 1 0
1 1 0
1 1 0
1 1 0
1 1 0
1 1 0
0 1 0
0 1 0
0 1 0
0 1 0
0 1 0
0 1 0
0 1 0
0 1 0
0 1 0
