assets/luts/alexa_logc_to_rec709.cube
LUT_3D_SIZE 9
0 0 0
0.0820935 0 0.000595102
0.2038 0 0.00259403
0.441794 0 0.012604
0.718395 0 0.0388037
0.975799 0 0.078996
1 0 0.102602
1 0 0.109194
1 0 0.111101
0 0.072694 0
0.062501 0.071107 0
0.196399 0.0657054 0
0.4392 0.0350042 0.00549325
0.717098 0 0.0317998
0.975006 0 0.0733043
1 0 0.0979934
1 0 0.104906
1 0 0.106798
0 0.188098 0
0 0.187396 0
0.170993 0.185306 0
0.430701 0.173999 0
0.712993 0.139605 0.00979629
0.972503 0.0484932 0.0529946
1 0 0.0825055
1 0 0.0903029
1 0 0.0925002
0 0.413703 0
0 0.413397 0
0 0.412695 0
0.383001 0.408698 0
0.691493 0.398001 0
0.959304 0.379507 0
1 0.364294 0
1 0.359304 0
1 0.357702 0
0 0.6757 0
0 0.675593 0
0 0.675196 0
0.180896 0.673304 0
0.629404 0.668193 0
0.923293 0.659693 0
1 0.652995 0
1 0.650797 0
1 0.650202 0
0 0.919707 0
0 0.919707 0
0 0.919402 0
0 0.918196 0
0.500801 0.915099 0
0.858701 0.909804 0
1 0.905699 0
1 0.904402 0
1 0.904005 0
0 1 0
0 1 0
0 1 0
0 1 0
0.351003 1 0
0.802792 1 0
0.986999 1 0
1 1 0
1 1 0
0 1 0
0 1 0
0 1 0
0 1 0
0.279194 1 0
0.783703 1 0
0.973297 1 0
1 1 0
1 1 0
0 1 0
0 1 0
0 1 0
0 1 0
0.252506 1 0
0.777905 1 0
0.969207 1 0
1 1 0
1 1 0
0 0 0.0639963
0.078294 0 0.0646067
0.202304 0 0.0663005
0.441306 0 0.0749065
0.718105 0 0.0944991
0.975601 0 0.120699
1 0 0.137804
1 0 0.142794
1 0 0.144305
0 0.0598001 0.0572976
0.0578927 0.0578927 0.0578927
0.194797 0.0518044 0.0598001
0.438605 0.0205997 0.0688945
0.716793 0 0.0894942
0.974807 0 0.116701
1 0 0.134401
1 0 0.139498
1 0 0.140993
0 0.183001 0.0352941
0 0.182406 0.0359045
0.1691 0.180194 0.0379034
0.430198 0.168505 0.0478981
0.712703 0.132601 0.0726024
0.972305 0.0341039 0.1037
1 0 0.123095
1 0 0.128695
1 0 0.130297
0 0.411902 0
0 0.411597 0
0 0.410803 0
0.3823 0.406806 0
0.691203 0.396094 0
0.959106 0.377493 0.00419623
1 0.362097 0.0377966
1 0.357107 0.0484016
1 0.355505 0.051606
0 0.674907 0
0 0.674693 0
0 0.674403 0
0.179202 0.672404 0
0.629007 0.667308 0
0.923095 0.658793 0
1 0.652003 0
1 0.649897 0
1 0.649195 0
0 0.919203 0
0 0.919097 0
0 0.918898 0
0 0.917693 0
0.500404 0.914504 0
0.858503 0.9093 0
1 0.905196 0
1 0.903899 0
1 0.903502 0
0 1 0
0 1 0
0 1 0
0 1 0
0.350301 1 0
0.802502 1 0
0.986801 1 0
1 1 0
1 1 0
0 1 0
0 1 0
0 1 0
0 1 0
0.278202 1 0
0.783505 1 0
0.973098 1 0
1 1 0
1 1 0
0 1 0
0 1 0
0 1 0
0 1 0
0.251392 1 0
0.777707 1 0
0.968994 1 0
1 1 0
1 1 0
0 0 0.173404
0.0655985 0 0.173693
0.197406 0 0.174395
0.439506 0 0.178103
0.717205 0 0.187396
0.975097 0 0.201602
1 0 0.211902
1 0 0.215106
1 0 0.216007
0 0.0149996 0.170794
0.0428016 0.0130007 0.170993
0.1897 0.00700389 0.171695
0.436896 0 0.175494
0.715908 0 0.184894
0.974304 0 0.199405
1 0 0.209796
1 0 0.213001
1 0 0.213901
0 0.166293 0.162097
0 0.165606 0.162402
0.163195 0.163195 0.163195
0.428397 0.149996 0.167102
0.711894 0.108095 0.177096
0.971801 0 0.192203
1 0 0.203006
1 0 0.206394
1 0 0.207294
0 0.406104 0.106706
0 0.405905 0.107103
0 0.405097 0.108293
0.380194 0.401007 0.114199
0.690303 0.390097 0.128405
0.958602 0.370993 0.149004
1 0.355306 0.163104
1 0.350103 0.1673
1 0.348501 0.168597
0 0.672099 0
0 0.672007 0
0 0.671595 0
0.173602 0.669703 0
0.628 0.6645 0
0.922499 0.655894 0
1 0.649104 0
1 0.646906 0
1 0.646296 0
0 0.917494 0
0 0.917403 0
0 0.917205 0
0 0.915999 0
0.498894 0.912795 0
0.857893 0.9075 0
1 0.903395 0
1 0.902098 0
1 0.901701 0
0 1 0
0 1 0
0 1 0
0 1 0
0.347906 1 0
0.801801 1 0
0.986297 1 0
1 1 0
1 1 0
0 1 0
0 1 0
0 1 0
0 1 0
0.274907 1 0
0.782696 1 0
0.972595 1 0
1 1 0
1 1 0
0 1 0
0 1 0
0 1 0
0 1 0
0.2477 1 0
0.776898 1 0
0.968399 1 0
1 1 0
1 1 0
0 0 0.387396
0 0 0.387503
0.170108 0 0.387793
0.430503 0 0.389197
0.712901 0 0.392706
0.972396 0 0.398505
1 0 0.402899
1 0 0.404303
1 0 0.4047
0 0 0.386496
0 0 0.386603
0.160998 0 0.386801
0.427695 0 0.388205
0.711604 0 0.391806
0.971603 0 0.397604
1 0 0.401999
1 0 0.403403
1 0 0.4038
0 0.0148928 0.383398
0 0.0130007 0.383505
0.127993 0.00689708 0.383795
0.418906 0 0.385199
0.707393 0 0.3888
0.9691 0 0.394598
1 0 0.3991
1 0 0.400504
1 0 0.4009
0 0.374807 0.367193
0 0.374502 0.3673
0 0.373602 0.367605
0.3691 0.3691 0.3691
0.685603 0.356695 0.3729
0.955795 0.334997 0.379095
1 0.316793 0.383795
1 0.310704 0.385199
1 0.308904 0.385702
0 0.657603 0.319005
0 0.657404 0.319203
0 0.656992 0.319493
0.141299 0.654994 0.321294
0.622599 0.649699 0.325902
0.919493 0.640803 0.333303
1 0.633799 0.338903
1 0.631495 0.340597
1 0.6309 0.3411
0 0.908507 0.207797
0 0.908507 0.207996
0 0.908202 0.208606
0 0.906996 0.211597
0.491402 0.903807 0.219303
0.854597 0.898405 0.231205
1 0.894301 0.240101
1 0.892897 0.242802
1 0.8925 0.243595
0 1 0
0 1 0
0 1 0
0 1 0
0.335195 1 0.0249027
0.798093 1 0.0673075
0.983703 1 0.0934005
1 1 0.100496
1 1 0.102495
0 1 0
0 1 0
0 1 0
0 1 0
0.257404 1 0
0.778897 1 0
0.969894 1 0
1 1 0
1 1 0
0 1 0
0 1 0
0 1 0
0 1 0
0.227497 1 0
0.773007 1 0
0.965698 1 0
1 1 0
1 1 0
0 0 0.636103
0 0 0.636103
0.0514992 0 0.636194
0.405203 0 0.636896
0.701198 0 0.638697
0.965194 0 0.641505
1 0 0.643793
1 0 0.644495
1 0 0.644694
0 0 0.635599
0 0 0.635599
0.0281987 0 0.635798
0.402197 0 0.636393
0.699794 0 0.638193
0.964401 0 0.641093
1 0 0.643305
1 0 0.644007
1 0 0.644205
0 0 0.634104
0 0 0.634195
0 0 0.634302
0.392599 0 0.635004
0.695598 0 0.636698
0.961807 0 0.639597
1 0 0.641794
1 0 0.642496
1 0 0.642802
0 0.267704 0.626398
0 0.267201 0.626398
0 0.265904 0.626596
0.337194 0.258701 0.627298
0.673198 0.238499 0.629099
0.948394 0.199695 0.631998
1 0.162097 0.634302
1 0.147997 0.635004
1 0.143496 0.635203
0 0.616907 0.605402
0 0.616693 0.605493
0 0.616297 0.6056
0 0.614099 0.606302
0.608194 0.608194 0.608194
0.911696 0.598398 0.611307
1 0.5906 0.613703
1 0.588098 0.614496
1 0.587304 0.614694
0 0.884398 0.568399
0 0.884306 0.568505
0 0.884092 0.568597
0 0.882795 0.569406
0.470695 0.879393 0.571496
0.845701 0.873899 0.574899
1 0.869505 0.577493
1 0.868101 0.578302
1 0.867704 0.5785
0 1 0.536904
0 1 0.536995
0 1 0.537194
0 1 0.538003
0.298405 1 0.540307
0.788296 1 0.543999
0.976593 1 0.546807
1 1 0.547707
1 1 0.547906
0 1 0.526406
0 1 0.526406
0 1 0.526604
0 1 0.527504
0.202197 1 0.529793
0.768704 1 0.533593
0.9626 1 0.536507
1 1 0.537408
1 1 0.537697
0 1 0.523201
0 1 0.523201
0 1 0.5234
0 1 0.5243
0.160006 1 0.526604
0.762707 1 0.530495
0.958404 1 0.533394
1 1 0.534295
1 1 0.5346
0 0 0.867506
0 0 0.867597
0 0 0.867597
0.358206 0 0.868101
0.6813 0 0.8692
0.953201 0 0.871
1 0 0.872297
1 0 0.872801
1 0 0.872908
0 0 0.867201
0 0 0.867308
0 0 0.867308
0.354604 0 0.867796
0.679896 0 0.868894
0.952407 0 0.870695
1 0 0.872099
1 0 0.872496
1 0 0.872602
0 0 0.8663
0 0 0.8663
0 0 0.866407
0.343206 0 0.866804
0.675395 0 0.867903
0.949706 0 0.869703
1 0 0.871107
1 0 0.871595
1 0 0.871702
0 0 0.861494
0 0 0.861601
0 0 0.861708
0.273899 0 0.862104
0.652003 0 0.863203
0.936095 0 0.865003
1 0 0.866407
1 0 0.866896
1 0 0.867002
0 0.539605 0.848798
0 0.539498 0.848798
0 0.538903 0.848905
0 0.536202 0.849393
0.583398 0.529107 0.850507
0.898497 0.516899 0.852399
1 0.507195 0.853803
1 0.504097 0.854307
1 0.503105 0.854398
0 0.842298 0.827207
0 0.842206 0.827298
0 0.841901 0.827298
0 0.840604 0.827802
0.4336 0.836896 0.829007
0.8309 0.8309 0.8309
1 0.8262 0.832395
1 0.824704 0.832898
1 0.824201 0.833005
0 0.995193 0.809796
0 0.995102 0.809796
0 0.994904 0.809903
0 0.993805 0.810407
0.220401 0.990997 0.811597
0.771801 0.986404 0.813596
0.964797 0.982803 0.815198
1 0.981704 0.815702
1 0.981292 0.815793
0 1 0.804196
0 1 0.804196
0 1 0.804303
0 1 0.804807
0.0124056 1 0.805997
0.751507 1 0.807996
0.950607 1 0.809598
1 1 0.810101
1 1 0.810193
0 1 0.802502
0 1 0.802502
0 1 0.802594
0 1 0.803098
0 1 0.804303
0.745296 1 0.806302
0.946303 1 0.807904
0.997696 1 0.808392
1 1 0.808606
0 0 0.996994
0 0 0.996994
0 0 0.997101
0.314794 0 0.997406
0.665202 0 0.998306
0.943694 0 0.999802
1 0 1
1 0 1
1 0 1
0 0 0.996796
0 0 0.996796
0 0 0.996902
0.310506 0 0.997208
0.663706 0 0.998093
0.942794 0 0.999496
1 0 1
1 0 1
1 0 1
0 0 0.996002
0 0 0.996002
0 0 0.996094
0.296803 0 0.996506
0.659098 0 0.997299
0.9402 0 0.998795
1 0 0.999893
1 0 1
1 0 1
0 0 0.992203
0 0 0.992203
0 0 0.992294
0.207095 0 0.992599
0.634699 0 0.9935
0.926299 0 0.994995
1 0 0.996094
1 0 0.996506
1 0 0.996597
0 0.465904 0.981994
0 0.465705 0.981994
0 0.465095 0.982101
0 0.461707 0.982498
0.562905 0.452796 0.983398
0.888106 0.437507 0.984802
1 0.425101 0.986007
1 0.420996 0.986404
1 0.419806 0.986496
0 0.807095 0.964904
0 0.807004 0.964904
0 0.806806 0.964996
0 0.805295 0.965393
0.401297 0.801404 0.966293
0.819104 0.794995 0.967803
0.998901 0.789899 0.968994
1 0.788296 0.969406
1 0.787793 0.969497
0 0.968399 0.951293
0 0.968307 0.951293
0 0.968093 0.9514
0 0.966995 0.951705
0.121401 0.964096 0.952697
0.758495 0.959197 0.954299
0.955505 0.955505 0.955505
1 0.954299 0.955901
1 0.953902 0.955993
0 1 0.946899
0 1 0.946899
0 1 0.947005
0 1 0.947402
0 1 0.948302
0.737697 1 0.949905
0.940993 0.999496 0.951095
0.992905 0.998398 0.951507
1 0.998093 0.951598
0 1 0.945602
0 1 0.945602
0 1 0.945693
0 1 0.946105
0 1 0.947005
0.731304 1 0.948608
0.936706 1 0.949798
0.988907 1 0.950195
1 1 0.950301
0 0 1
0 0 1
0 0 1
0.299199 0 1
0.659907 0 1
0.940597 0 1
1 0 1
1 0 1
1 0 1
0 0 1
0 0 1
0 0 1
0.294697 0 1
0.658396 0 1
0.939803 0 1
1 0 1
1 0 1
1 0 1
0 0 1
0 0 1
0 0 1
0.279896 0 1
0.653803 0 1
0.937102 0 1
1 0 1
1 0 1
1 0 1
0 0 1
0 0 1
0 0 1
0.179599 0 1
0.629099 0 1
0.923095 0 1
1 0 1
1 0 1
1 0 1
0 0.438697 1
0 0.438499 1
0 0.437797 1
0 0.434104 1
0.5561 0.424399 1
0.884703 0.407507 1
1 0.393805 1
1 0.389197 1
1 0.3879 1
0 0.795499 1
0 0.795407 1
0 0.795102 1
0 0.793606 1
0.390204 0.789593 1
0.815305 0.783001 1
0.996094 0.777905 1
1 0.776196 1
1 0.775692 1
0 0.959594 0.989899
0 0.959503 0.989899
0 0.959304 0.990005
0 0.958206 0.990295
0.0646067 0.955306 0.991196
0.754192 0.950393 0.992706
0.952499 0.946502 0.993805
1 0.945296 0.994202
1 0.945006 0.994293
0 1 0.985794
0 1 0.985794
0 1 0.985794
0 1 0.986206
0 0.999298 0.987106
0.733196 0.994797 0.988602
0.938003 0.991196 0.9897
0.990097 0.990097 0.990097
1 0.9897 0.990204
0 1 0.984497
0 1 0.984497
0 1 0.984604
0 1 0.985
0 1 0.985901
0.726696 1 0.987305
0.933593 1 0.988495
0.986007 1 0.9888
1 1 0.988907
0 0 1
0 0 1
0 0 1
0.294408 0 1
0.658305 0 1
0.939696 0 1
1 0 1
1 0 1
1 0 1
0 0 1
0 0 1
0 0 1
0.289693 0 1
0.656901 0 1
0.938903 0 1
1 0 1
1 0 1
1 0 1
0 0 1
0 0 1
0 0 1
0.274601 0 1
0.652201 0 1
0.936202 0 1
1 0 1
1 0 1
1 0 1
0 0 1
0 0 1
0 0 1
0.170504 0 1
0.627405 0 1
0.922194 0 1
1 0 1
1 0 1
1 0 1
0 0.430106 1
0 0.429892 1
0 0.429206 1
0 0.425406 1
0.554101 0.415396 1
0.883696 0.398001 1
1 0.383703 1
1 0.379095 1
1 0.377707 1
0 0.792004 1
0 0.791897 1
0 0.791608 1
0 0.790097 1
0.386892 0.786099 1
0.814206 0.7794 1
0.9953 0.774197 1
1 0.772595 1
1 0.772107 1
0 0.957 1
0 0.956893 1
0 0.956695 1
0 0.955596 1
0.0402991 0.952605 1
0.752895 0.947707 1
0.951598 0.943893 1
1 0.942596 1
1 0.942306 1
0 1 0.996902
0 1 0.996902
0 1 0.996902
0 0.999603 0.997299
0 0.996796 0.998199
0.731807 0.992294 0.999603
0.936996 0.988693 1
0.989197 0.987594 1
1 0.987198 1
0 1 0.995605
0 1 0.995697
0 1 0.995697
0 1 0.996094
0 1 0.996994
0.725399 1 0.998398
0.932692 1 0.999496
0.985199 1 0.999893
1 1 1
