assets/luts/alexa_logc_to_rec709.cube
LUT_3D_SIZE 5
0 0 0
0.2038 0 0.00259403
0.718395 0 0.0388037
1 0 0.102602
1 0 0.111101
0 0.188098 0
0.170993 0.185306 0
0.712993 0.139605 0.00979629
1 0 0.0825055
1 0 0.0925002
0 0.6757 0
0 0.675196 0
0.629404 0.668193 0
1 0.652995 0
1 0.650202 0
0 1 0
0 1 0
0.351003 1 0
0.986999 1 0
1 1 0
0 1 0
0 1 0
0.252506 1 0
0.969207 1 0
1 1 0
0 0 0.173404
0.197406 0 0.174395
0.717205 0 0.187396
1 0 0.211902
1 0 0.216007
0 0.166293 0.162097
0.163195 0.163195 0.163195
0.711894 0.108095 0.177096
1 0 0.203006
1 0 0.207294
0 0.672099 0
0 0.671595 0
0.628 0.6645 0
1 0.649104 0
1 0.646296 0
0 1 0
0 1 0
0.347906 1 0
0.986297 1 0
1 1 0
0 1 0
0 1 0
0.2477 1 0
0.968399 1 0
1 1 0
0 0 0.636103
0.0514992 0 0.636194
0.701198 0 0.638697
1 0 0.643793
1 0 0.644694
0 0 0.634104
0 0 0.634302
0.695598 0 0.636698
1 0 0.641794
1 0 0.642802
0 0.616907 0.605402
0 0.616297 0.6056
0.608194 0.608194 0.608194
1 0.5906 0.613703
1 0.587304 0.614694
0 1 0.536904
0 1 0.537194
0.298405 1 0.540307
0.976593 1 0.546807
1 1 0.547906
0 1 0.523201
0 1 0.5234
0.160006 1 0.526604
0.958404 1 0.533394
1 1 0.5346
0 0 0.996994
0 0 0.997101
0.665202 0 0.998306
1 0 1
1 0 1
0 0 0.996002
0 0 0.996094
0.659098 0 0.997299
1 0 0.999893
1 0 1
0 0.465904 0.981994
0 0.465095 0.982101
0.562905 0.452796 0.983398
1 0.425101 0.986007
1 0.419806 0.986496
0 0.968399 0.951293
0 0.968093 0.9514
0.121401 0.964096 0.952697
0.955505 0.955505 0.955505
1 0.953902 0.955993
0 1 0.945602
0 1 0.945693
0 1 0.947005
0.936706 1 0.949798
1 1 0.950301
0 0 1
0 0 1
0.658305 0 1
1 0 1
1 0 1
0 0 1
0 0 1
0.652201 0 1
1 0 1
1 0 1
0 0.430106 1
0 0.429206 1
0.554101 0.415396 1
1 0.383703 1
1 0.377707 1
0 0.957 1
0 0.956695 1
0.0402991 0.952605 1
0.951598 0.943893 1
1 0.942306 1
0 1 0.995605
0 1 0.995697
0 1 0.996994
0.932692 1 0.999496
1 1 1
